projects/seb-pictograms/svg/regular/36-Picto-Regular_black.svg

<svg xmlns="http://www.w3.org/2000/svg" viewBox="0 0 170 170"><path d="M162 88H95.1v-6H159V11H11v71h6.5v6H8a3 3 0 01-3-3V8a3 3 0 013-3h154a3 3 0 013 3v77a3 3 0 01-3 3zm-22 50.6a17.5 17.5 0 1117.5-17.5 17.5 17.5 0 01-17.5 17.5zm0-29a11.5 11.5 0 1011.5 11.5 11.5 11.5 0 00-11.5-11.5zm25 55.4h-6a11.3 11.3 0 00-11.2-11.4h-15.6A11.3 11.3 0 00121 165h-6a17.4 17.4 0 0117.2-17.4h15.5A17.4 17.4 0 01165 165zm-80-26.4a17.5 17.5 0 1117.5-17.5A17.5 17.5 0 0185 138.6zm0-29a11.5 11.5 0 1011.5 11.5A11.5 11.5 0 0085 109.6zm25 55.4h-6a11.3 11.3 0 00-11.2-11.4H77.2A11.3 11.3 0 0066 165h-6a17.4 17.4 0 0117.2-17.4h15.6A17.4 17.4 0 01110 165zm-80-26.4a17.5 17.5 0 1117.5-17.5A17.5 17.5 0 0130 138.6zm0-29a11.5 11.5 0 1011.5 11.5A11.5 11.5 0 0030 109.6zM55 165h-6a11.3 11.3 0 00-11.2-11.4H22.2A11.3 11.3 0 0011 165H5a17.4 17.4 0 0117.2-17.4h15.6A17.4 17.4 0 0155 165z"/><path d="M51.3 58.5A17.5 17.5 0 1033.8 41a17.5 17.5 0 0017.5 17.5zm0-29A11.5 11.5 0 1139.8 41a11.5 11.5 0 0111.5-11.5zM76 82a17.3 17.3 0 00-17-14.4H43.5A17.4 17.4 0 0026.3 85v13.4h6V85a11.3 11.3 0 0111.2-11.4H59a11.3 11.3 0 0111.2 10 11.6 11.6 0 01.1 1.4 3 3 0 003 3h13.3v-6z"/></svg>

<svg id="PIKTO_REGULAR" xmlns="http://www.w3.org/2000/svg" viewBox="0 0 170 170"><title>regular_black</title><path d="M162,88H95.1V82H159V11H11V82h6.5v6H8a3,3,0,0,1-3-3V8A3,3,0,0,1,8,5H162a3,3,0,0,1,3,3V85A3,3,0,0,1,162,88Z"/><path d="M140,138.6a17.5,17.5,0,1,1,17.5-17.5A17.5,17.5,0,0,1,140,138.6Zm0-29a11.5,11.5,0,1,0,11.5,11.5A11.5,11.5,0,0,0,140,109.6Z"/><path d="M165,165h-6a11.3,11.3,0,0,0-11.2-11.4H132.2A11.3,11.3,0,0,0,121,165h-6a17.4,17.4,0,0,1,17.2-17.4h15.5A17.4,17.4,0,0,1,165,165Z"/><path d="M85,138.6a17.5,17.5,0,1,1,17.5-17.5A17.5,17.5,0,0,1,85,138.6Zm0-29a11.5,11.5,0,1,0,11.5,11.5A11.5,11.5,0,0,0,85,109.6Z"/><path d="M110,165h-6a11.3,11.3,0,0,0-11.2-11.4H77.2A11.3,11.3,0,0,0,66,165H60a17.4,17.4,0,0,1,17.2-17.4H92.8A17.4,17.4,0,0,1,110,165Z"/><path d="M30,138.6a17.5,17.5,0,1,1,17.5-17.5A17.5,17.5,0,0,1,30,138.6Zm0-29a11.5,11.5,0,1,0,11.5,11.5A11.5,11.5,0,0,0,30,109.6Z"/><path d="M55,165H49a11.3,11.3,0,0,0-11.2-11.4H22.2A11.3,11.3,0,0,0,11,165H5a17.4,17.4,0,0,1,17.2-17.4H37.8A17.4,17.4,0,0,1,55,165Z"/><path d="M51.3,58.5A17.5,17.5,0,1,0,33.8,41,17.5,17.5,0,0,0,51.3,58.5Zm0-29A11.5,11.5,0,1,1,39.8,41,11.5,11.5,0,0,1,51.3,29.5Z"/><path d="M76,82h0A17.3,17.3,0,0,0,59,67.6H43.5A17.4,17.4,0,0,0,26.3,85V98.4h6V85A11.3,11.3,0,0,1,43.5,73.6H59A11.3,11.3,0,0,1,70.2,83.6a11.6,11.6,0,0,1,.1,1.4,3,3,0,0,0,3,3H86.6V82Z"/></svg>
